src/24/actions/zoom-out.svg

<svg xmlns="http://www.w3.org/2000/svg" viewBox="0 0 24 24"><path d="M4 4v7h1V5h14v14h-6v1h7V4H4zm11.293 4L12 11.293V9h-1v4h4v-1h-2.293L16 8.707 15.293 8zM4 14v2h1v-1h1v-1H4zm4 0v1h1v1h1v-2H8zm-4 4v2h2v-1H5v-1H4zm5 0v1H8v1h2v-2H9z" fill="currentColor" color="#5d656b"/></svg>

<svg xmlns="http://www.w3.org/2000/svg" viewBox="0 0 24 24">
  <defs id="defs3051">
    <style type="text/css" id="current-color-scheme">
      .ColorScheme-Text {
        color:#5d656b;
      }
      </style>
  </defs>
 <path style="fill:currentColor;fill-opacity:1;stroke:none" 
     d="M 4 4 L 4 11 L 5 11 L 5 5 L 19 5 L 19 19 L 13 19 L 13 20 L 20 20 L 20 19 L 20 5 L 20 4 L 5 4 L 4 4 z M 15.292969 8 L 12 11.292969 L 12 9 L 11 9 L 11 13 L 12 13 L 15 13 L 15 12 L 12.707031 12 L 16 8.7070312 L 15.292969 8 z M 4 14 L 4 16 L 5 16 L 5 15 L 6 15 L 6 14 L 4 14 z M 8 14 L 8 15 L 9 15 L 9 16 L 10 16 L 10 14 L 8 14 z M 4 18 L 4 20 L 6 20 L 6 19 L 5 19 L 5 18 L 4 18 z M 9 18 L 9 19 L 8 19 L 8 20 L 10 20 L 10 18 L 9 18 z "
     class="ColorScheme-Text"
     />
</svg>
